actions/16/view-financial-list.svg

<svg height="16" viewBox="0 0 16 16" width="16" xmlns="http://www.w3.org/2000/svg">
  <defs id="defs3051">
    <style type="text/css" id="current-color-scheme">
      .ColorScheme-Text {
        color:#eff0f1;
      }
      .ColorScheme-NegativeText {
        color:#da4453;
      }
      .ColorScheme-PositiveText {
        color:#27ae60;
      }
      </style>
  </defs>
    <path
        style="fill:currentColor;fill-opacity:1;stroke:none" 
        d="m10 4v1h2v-1zm0 6v1h2v-1z"
        class="ColorScheme-PositiveText"
    />
    <path
        style="fill:currentColor;fill-opacity:1;stroke:none"
        d="m3 2v2h-1v2h1v4h-1v2h1v2h11v-12zm2 1h8v10h-8zm1 1v1h3v-1zm0 2v1h3v-1zm0 2v1h3v-1zm0 2v1h3v-1z"
        class="ColorScheme-Text"
    />
    <path
        style="fill:currentColor;fill-opacity:1;stroke:none"
        d="m10 7h2v1h-2z"
        class="ColorScheme-NegativeText"
    />
</svg>

<svg height="16" viewBox="0 0 16 16" width="16" xmlns="http://www.w3.org/2000/svg">
  <defs id="defs3051">
    <style type="text/css" id="current-color-scheme">.ColorScheme-Text {color:#fcfcfc;}.ColorScheme-NegativeText {color:#da4453;}.ColorScheme-PositiveText {color:#27ae60;}</style>
  </defs>
    <path
        style="fill:currentColor;fill-opacity:1;stroke:none" 
        d="m10 4v1h2v-1zm0 6v1h2v-1z"
        class="ColorScheme-PositiveText"
    />
    <path
        style="fill:currentColor;fill-opacity:1;stroke:none"
        d="M 5,2 C 3,2 3,4 3,4 H 2 v 2 h 1 v 4 H 2 v 2 h 1 c 0,0 0,2 2,2 2,0 7,0 7,0 0,0 2,0 2,-2.027224 C 14,9.9455528 14,6 14,4 14,2 12,2 12,2 12,2 7,2 5,2 Z M 5,4 C 5,3 6,3 6,3 h 6 c 0,0 1,0 1,1 0,1 0,7 0,8 0,1 -1,1 -1,1 L 6,13 C 6,13 5,13 5,12 5,11 5,5 5,4 Z M 6,4 V 5 H 9 V 4 Z M 6,6 V 7 H 9 V 6 Z M 6,8 V 9 H 9 V 8 Z m 0,2 v 1 h 3 v -1 z"
        class="ColorScheme-Text"
    />
    <path
        style="fill:currentColor;fill-opacity:1;stroke:none"
        d="m10 7h2v1h-2z"
        class="ColorScheme-NegativeText"
    />
</svg>
